app/assets/images/status/info-question.svg

<svg width="100" height="100" viewBox="0 0 100 100" fill="none" xmlns="http://www.w3.org/2000/svg"><g filter="url(#filter0_d_119_1070)"><path d="M50 94C74.3005 94 94 74.3005 94 50C94 25.6995 74.3005 6 50 6C25.6995 6 6 25.6995 6 50C6 74.3005 25.6995 94 50 94Z" fill="white"/></g><path d="M49.9994 89.6009C71.8704 89.6009 89.6003 71.871 89.6003 50C89.6003 28.129 71.8704 10.399 49.9994 10.399C28.1284 10.399 10.3984 28.129 10.3984 50C10.3984 71.871 28.1284 89.6009 49.9994 89.6009Z" fill="#008099"/><path d="M49.9992 85.6408C69.6831 85.6408 85.6401 69.6838 85.6401 50C85.6401 30.3161 69.6831 14.3591 49.9992 14.3591C30.3153 14.3591 14.3584 30.3161 14.3584 50C14.3584 69.6838 30.3153 85.6408 49.9992 85.6408Z" fill="white"/><path d="M49.9992 68.6906C39.6925 68.6906 31.3086 60.3067 31.3086 50C31.3086 39.6932 39.6925 31.3093 49.9992 31.3093C60.306 31.3093 68.6899 39.6932 68.6899 50C68.6899 60.3067 60.306 68.6906 49.9992 68.6906Z" fill="#008099"/><path d="M49.999 31.3094V68.6907C60.3058 68.6907 68.6897 60.3068 68.6897 50C68.6897 39.6933 60.3058 31.3094 49.999 31.3094Z" fill="#006175"/><path d="M49.087 50.3432C49.8413 48.9799 51.2943 48.1761 52.1383 46.9674C53.0317 45.703 52.5309 43.3381 49.999 43.3381C48.342 43.3381 47.5259 44.5932 47.1827 45.635L44.6416 44.5654C45.3372 42.4756 47.2322 40.6795 49.9866 40.6795C52.2928 40.6795 53.8725 41.7306 54.6763 43.0444C55.3626 44.1728 55.7645 46.2811 54.7072 47.8515C53.5294 49.5889 52.401 50.1175 51.7951 51.2366C51.5509 51.688 51.452 51.9817 51.452 53.4346H48.6172C48.6079 52.6679 48.4904 51.4252 49.087 50.3432ZM51.9621 57.3576C51.9621 58.4365 51.0779 59.3207 49.999 59.3207C48.9201 59.3207 48.036 58.4365 48.036 57.3576C48.036 56.2787 48.9201 55.3946 49.999 55.3946C51.0779 55.3946 51.9621 56.2787 51.9621 57.3576Z" fill="white"/><defs><filter id="filter0_d_119_1070" x="0" y="0" width="100" height="100" filterUnits="userSpaceOnUse" color-interpolation-filters="sRGB"><feFlood flood-opacity="0" result="BackgroundImageFix"/><feColorMatrix in="SourceAlpha" type="matrix" values="0 0 0 0 0 0 0 0 0 0 0 0 0 0 0 0 0 0 127 0" result="hardAlpha"/><feOffset/><feGaussianBlur stdDeviation="3"/><feColorMatrix type="matrix" values="0 0 0 0 0 0 0 0 0 0 0 0 0 0 0 0 0 0 0.24 0"/><feBlend mode="normal" in2="BackgroundImageFix" result="effect1_dropShadow_119_1070"/><feBlend mode="normal" in="SourceGraphic" in2="effect1_dropShadow_119_1070" result="shape"/></filter></defs></svg>

<svg width="100" height="100" viewBox="0 0 100 100" fill="none" xmlns="http://www.w3.org/2000/svg"><g filter="url(#a)"><path d="M50 94c24.3 0 44-19.7 44-44S74.3 6 50 6 6 25.7 6 50s19.7 44 44 44Z" fill="#fff"/></g><path d="M50 89.6c21.87 0 39.6-17.729 39.6-39.6 0-21.871-17.73-39.601-39.6-39.601-21.872 0-39.602 17.73-39.602 39.601S28.128 89.6 50 89.6Z" fill="#008099"/><path d="M50 85.64c19.683 0 35.64-15.956 35.64-35.64S69.683 14.36 50 14.36c-19.685 0-35.642 15.956-35.642 35.64S30.315 85.64 50 85.64Z" fill="#fff"/><path d="M50 68.69c-10.307 0-18.691-8.383-18.691-18.69 0-10.307 8.384-18.69 18.69-18.69 10.307 0 18.69 8.383 18.69 18.69 0 10.307-8.383 18.69-18.69 18.69Z" fill="#008099"/><path d="M49.999 31.31v37.38c10.307 0 18.69-8.383 18.69-18.69 0-10.307-8.383-18.69-18.69-18.69Z" fill="#006175"/><path d="M49.087 50.343c.754-1.363 2.207-2.167 3.051-3.376.894-1.264.393-3.629-2.139-3.629-1.657 0-2.473 1.255-2.816 2.297l-2.541-1.07c.695-2.09 2.59-3.886 5.345-3.886 2.306 0 3.886 1.052 4.69 2.365.686 1.129 1.087 3.237.03 4.808-1.178 1.737-2.306 2.266-2.912 3.385-.244.451-.343.745-.343 2.198h-2.835c-.01-.767-.127-2.01.47-3.092Zm2.875 7.015A1.97 1.97 0 0 1 50 59.32a1.97 1.97 0 0 1-1.963-1.963A1.97 1.97 0 0 1 50 55.394a1.97 1.97 0 0 1 1.963 1.963Z" fill="#fff"/><defs><filter id="a" x="0" y="0" width="100" height="100" filterUnits="userSpaceOnUse" color-interpolation-filters="sRGB"><feFlood flood-opacity="0" result="BackgroundImageFix"/><feColorMatrix in="SourceAlpha" values="0 0 0 0 0 0 0 0 0 0 0 0 0 0 0 0 0 0 127 0" result="hardAlpha"/><feOffset/><feGaussianBlur stdDeviation="3"/><feColorMatrix values="0 0 0 0 0 0 0 0 0 0 0 0 0 0 0 0 0 0 0.24 0"/><feBlend in2="BackgroundImageFix" result="effect1_dropShadow_119_1070"/><feBlend in="SourceGraphic" in2="effect1_dropShadow_119_1070" result="shape"/></filter></defs></svg>
